textures/ui/editor/popout.svg

<?xml version="1.0" encoding="UTF-8"?><svg version="1.1" viewBox="0 0 18 24" xmlns="http://www.w3.org/2000/svg"><path d="m3 7.985e-8c-1.662 0-3 1.338-3 3v16c0 2.77 2.23 5 5 5h8c2.77 0 5-2.23 5-5v-16c0-1.662-1.338-3-3-3h-2c1.662 0 3 1.338 3 3v16c0 1.662-1.338 3-3 3h-8c-1.662-1e-6 -3-1.338-3-3v-16c0-1.662 1.338-3 3-3z" fill-opacity=".13726"/><path d="m5 7.985e-8c-1.662 0-3 1.338-3 3v16c0 1.662 1.338 3 3 3h8c1.662 0 3-1.338 3-3v-16c0-1.662-1.338-3-3-3h-4zm0 1h8c1.108 0 2 0.892 2 2v15h-5v3h-2v-3h-5v-15c0-1.108 0.892-2 2-2z" fill="#fff" fill-opacity=".78431"/><path d="m5 1c-1.108-1.02e-6 -2 0.892-2 2v15h5v-17zm5 0v17h5v-15c0-1.108-0.892-2-2-2z" fill="#907c7b"/><rect x="8" y="1" width="2" height="20" fill="#5a141c"/></svg>

<svg xmlns="http://www.w3.org/2000/svg" viewBox="0 0 18 24"><path fill-opacity=".137" d="M3 0C1.338 0 0 1.338 0 3v16c0 2.77 2.23 5 5 5h8c2.77 0 5-2.23 5-5V3c0-1.662-1.338-3-3-3h-2c1.662 0 3 1.338 3 3v16c0 1.662-1.338 3-3 3H5c-1.662 0-3-1.338-3-3V3c0-1.662 1.338-3 3-3z"/><path fill="#fff" fill-opacity=".784" d="M5 0C3.338 0 2 1.338 2 3v16c0 1.662 1.338 3 3 3h8c1.662 0 3-1.338 3-3V3c0-1.662-1.338-3-3-3H9zm0 1h8c1.108 0 2 .892 2 2v15h-5v3H8v-3H3V3c0-1.108.892-2 2-2"/><path fill="#907c7b" d="M5 1c-1.108 0-2 .892-2 2v15h5V1zm5 0v17h5V3c0-1.108-.892-2-2-2z"/><path fill="#5a141c" d="M8 1h2v20H8z"/></svg>
